X: 48
T:Frank's Reel
R:reel
C:John McCusker
Z:added by Alf 
M:4/4
L:1/8
K:A
| AcBA F2AF|EFAB cABc|d3f ecAe|faec B/2c/2dcB|
AcBA F2AF|EFAB cABc|d3f ecAc|BAGB A2E/2F/2G|
AcBA F2AF|EFAB cABc|d2df ecAe|faec B/2c/2dcB|
AcBA EFAF|EFAB cABc|dff/2f/2f ecAc|BAGB Aefg|
aAAg AAfA|effe cABc|d3f ecAc|Bcde fee/2f/2g|
aAAg AAfA|effe cABc|dff/2f/2f ecAc|BAGB Aefg|
aAAg AAfA|ef2e cABc|d3f eAce|faec B/2c/2dcB|
AcBA F3A|EFAB cABc|d3f ecAc|BAGB A4|
